X:1
T:Christmas Carol
T:Christmas Carol
T:E. B. Smith
T:E. B. Smith, 1878
T:Public Domain Courtesy of the Cyber Hymnal™
C:E. B. Smith
Z:Public Domain
Z:Courtesy of the Cyber Hymnal™
%%score ( 1 2 ) ( 3 4 )
L:1/8
Q:1/4=100
M:6/8
K:G
V:1 treble 
V:2 treble 
V:3 bass 
V:4 bass 
V:1
 D | [B,DG]2 [B,DG] [DFA]2 [DFA] | [DGB]3 [GBd]2 [GB] | [Ac]3 [GB]3 | [FA]3- [FA]2 D | %5
w: 1.~A|star shone in the|hea- vens On|Christ- mas|morn, * A-|
w: 2.~The|wise men saw the|bright- ness, And|came from|far; * They|
w: 3.~Oh,|may this star of|beau- ty Still|point the|way, * To|
 [B,DG]2 [B,DG] [DFA]2 [DFA] | [GB]3 [=Fd]2 [Ec] | [DB]3 [CA]3 | [B,G]3- [B,G]2 ||"^Refrain" [Bd] | %10
w: bove the place where|Je- sus, The|Lord, was|born. *||
w: found the way to|Je- sus, Led|by the|star. *|O|
w: lead us all to|Je- sus, This|Christ- mas|day. *||
 [Bd]2 [GB] [ce]2 [Bd] | [Bd]3 [GB]2 [GB] | [Ac]2 [FA] [Fd]2 [Ac] | [Ac]3 [FA]2 [FA] | %14
w: ||||
w: ho- ly, ho- ly|Christ- mas, O|bless- èd, bless- èd|Christ- mas, O|
w: ||||
 [GB]2 [GB] [Gc]2 [Fc] | [=Fd]3 !fermata![Ee]2 [Ac] | [GB]3 [FA]3 | G3- G2 |] %18
w: ||||
w: joy- ful, joy- ful|Christ- mas, When|Christ was|born. *|
w: ||||
V:2
 D | x6 | x6 | x6 | x5 D | x6 | x6 | x6 | x5 || x | x6 | x6 | x6 | x6 | x6 | x6 | x6 | G3- G2 |] %18
V:3
 D, | G,2 G, D,2 D, | G,3 G,2 G, | F,3 G,3 | D,3- D,2 D, | G,2 G, D,2 D, | G,3 B,,2 C, | D,3 D,3 | %8
 G,,3- G,,2 || [G,D] | [G,D]2 [G,D] [G,D]2 [G,D] | [G,D]3 [G,D]2 [G,D] | %12
 [D,D]2 [D,D] [D,D]2 [D,D] | [D,D]3 [D,D]2 [D,D] | G,2 G, [G,A,]2 [G,A,] | %15
 [G,B,]3 !fermata![C,C]2 [C,E] | [D,D]3 [D,C]3 | [G,,B,]3- [G,,B,]2 |] %18
V:4
 x | x6 | x6 | x6 | x6 | x6 | x6 | x6 | x5 || x | x6 | x6 | x6 | x6 | G,2 G, x3 | x6 | x6 | x5 |] %18

